data/sheikah/q.svg

<!-- Generated by IcoMoon.io -->
<svg version="1.1" xmlns="http://www.w3.org/2000/svg" width="1024" height="1024" viewBox="0 0 1024 1024">
<title></title>
<g id="icomoon-ignore">
</g>
<path d="M153.5 153.5h119.5v119.5h-119.5v-119.5zM352.5 153.5h119.5v119.5h-119.5v-119.5zM352.5 552h119.5v318.5h-119.5v-318.5zM552 552h119.5v318.5h-119.5v-318.5zM273 870.5l-119.5-119.5v-279l119.5-119.5h279v-199h119.5v199l-119.5 119.5h-279v398.5zM751 153.5l119.5 119.5v478l-119.5 119.5v-717z"></path>
</svg>

<svg xmlns="http://www.w3.org/2000/svg" width="1024" height="1024" viewBox="0 0 1024 1024">
  <title/>
  <path d="M153.5 153.5H273V273H153.5zm199 0H472V273H352.5zm0 398.5H472v318.5H352.5zm199.5 0h119.5v318.5H552zM273 870.5 153.5 751V472L273 352.5h279v-199h119.5v199L552 472H273zm478-717L870.5 273v478L751 870.5z"/>
</svg>
